X:1
T:At Close of Day. WHG.043
T:At Close of Day. WHG.043
T:Favourite Tyrolien Air in William Tell,aka. WHG.042
T:Rossini
C:Rossini
L:1/8
Q:1/4=160
M:3/4
K:G
V:1 treble 
V:1
 DG A | B3 GBc | d3 eBe | (dc).A.D.Ae | (dB) .G .D.G.A | B3 GBc | d3 eBe | (dc)ADFA | G6 || %9
 g4 (fe) | (ed) d2 e2 | (dc) c2 d2 | (cB) B2 dd | g4 (fe) | (cB) B2 e2 | (d^c) c2 c2 | d3 AeA | %17
 d3 AcA | d3 AeA | e3 AcA | (de)(ce)(de) | (cd)(Bd)(Ad) | G2"^Pia" z DGA | B3 GBc | d3 eBe | %25
 dcAFAe | (dB) G"^f Ritard" DGA | B3 GBc | d3 eBe | (dc) A DGA | G2"^Pia" z .F.G.A | B3 FBF | %32
 B2 z cBA | B3 DBD | G2 z FGA | B3 FBF | B2 z cBA | G3 DBD | G4 d2 |"^For" g4 fe | (ed) d2 e2 | %41
 (dc) c2 d2 | cB A2 G2 | g4 fe | (ed) d2 e2 | dc c2 f2 | g2 z |] %47

